original/processed/scala.svg

<?xml version="1.0" encoding="UTF-8" standalone="no"?>
<svg
   xmlns:dc="http://purl.org/dc/elements/1.1/"
   xmlns:cc="http://creativecommons.org/ns#"
   xmlns:rdf="http://www.w3.org/1999/02/22-rdf-syntax-ns#"
   xmlns:svg="http://www.w3.org/2000/svg"
   xmlns="http://www.w3.org/2000/svg"
   style="display: block;"
   height="400"
   width="400"
   version="1.1"
   id="svg">
  <metadata
     id="metadata9">
    <rdf:RDF>
      <cc:Work
         rdf:about="">
        <dc:format>image/svg+xml</dc:format>
        <dc:type
           rdf:resource="http://purl.org/dc/dcmitype/StillImage" />
        <dc:title></dc:title>
      </cc:Work>
    </rdf:RDF>
  </metadata>
  <defs
     id="defs7" />
  <g
     id="svgg">
    <path
       style="fill:#000000;fill-rule:evenodd;stroke:none"
       d="m 307,2.5 c 0,0.825 -0.45,1.5 -1,1.5 -0.55,0 -1,0.695 -1,1.545 0,1.962 -4.001,6.003 -6.835,6.903 -1.191,0.378 -2.165,1.106 -2.165,1.619 0,0.513 -0.9,0.933 -2,0.933 -1.1,0 -2,0.45 -2,1 0,0.55 -0.675,1 -1.5,1 -0.825,0 -1.5,0.422 -1.5,0.939 0,0.516 -2.025,1.242 -4.5,1.613 -2.475,0.371 -4.5,1.074 -4.5,1.562 0,0.487 -1.125,0.886 -2.5,0.886 -1.375,0 -2.5,0.45 -2.5,1 0,0.55 -1.35,1 -3,1 -1.65,0 -3,0.45 -3,1 0,0.55 -1.538,1 -3.417,1 -1.879,0 -3.569,0.457 -3.755,1.015 -0.186,0.558 -3.373,1.298 -7.083,1.644 -3.71,0.347 -6.745,1.015 -6.745,1.486 0,0.47 -1.575,0.855 -3.5,0.855 -1.925,0 -3.5,0.45 -3.5,1 0,0.55 -1.575,1 -3.5,1 -1.925,0 -3.5,0.414 -3.5,0.92 0,0.506 -4.5,1.239 -10,1.629 -5.5,0.39 -10,1.101 -10,1.58 0,0.479 -2.25,0.871 -5,0.871 -2.75,0 -5,0.45 -5,1 0,0.55 -2.025,1 -4.5,1 -2.475,0 -4.5,0.45 -4.5,1 0,0.55 -2.475,1 -5.5,1 -3.025,0 -5.5,0.405 -5.5,0.899 0,0.495 -5.625,1.224 -12.5,1.621 -6.875,0.396 -12.5,1.116 -12.5,1.6 0,0.484 -3.15,0.88 -7,0.88 -4,0 -7,0.429 -7,1 0,0.55 -2.475,1 -5.5,1 -3.025,0 -5.5,0.399 -5.5,0.888 0,0.488 -6.3,1.213 -14,1.612 -7.7,0.399 -14,1.124 -14,1.612 0,0.489 -3.15,0.888 -7,0.888 -4,0 -7,0.429 -7,1 0,0.55 -2.475,1 -5.5,1 -3.025,0 -5.5,0.45 -5.5,1 0,0.55 -2.475,1 -5.5,1 -3.025,0 -5.5,0.45 -5.5,1 0,0.55 -1.313,1 -2.918,1 C 60.56,60 61,56.485 61,108.607 V 156 h 4.5 c 2.475,0 4.5,-0.45 4.5,-1 0,-0.55 2.475,-1 5.5,-1 3.025,0 5.5,-0.45 5.5,-1 0,-0.55 2.025,-1 4.5,-1 2.475,0 4.5,-0.45 4.5,-1 0,-0.571 3,-1 7,-1 3.85,0 7,-0.399 7,-0.888 0,-0.488 6.3,-1.213 14,-1.612 7.7,-0.399 14,-1.124 14,-1.612 0,-0.489 3.375,-0.888 7.5,-0.888 4.333,0 7.5,-0.422 7.5,-1 0,-0.55 2.25,-1 5,-1 2.75,0 5,-0.404 5,-0.898 0,-0.493 6.075,-1.222 13.5,-1.62 7.425,-0.398 13.5,-1.119 13.5,-1.603 0,-0.483 2.475,-0.879 5.5,-0.879 3.025,0 5.5,-0.45 5.5,-1 0,-0.55 2.025,-1 4.5,-1 2.475,0 4.5,-0.45 4.5,-1 0,-0.55 2.25,-1 5,-1 2.75,0 5,-0.392 5,-0.871 0,-0.479 4.5,-1.19 10,-1.58 5.5,-0.39 10,-1.123 10,-1.629 0,-0.506 1.575,-0.92 3.5,-0.92 1.925,0 3.5,-0.45 3.5,-1 0,-0.55 1.575,-1 3.5,-1 1.925,0 3.5,-0.419 3.5,-0.931 0,-0.512 3.6,-1.246 8,-1.629 4.4,-0.384 8,-1.09 8,-1.569 0,-0.479 1.125,-0.871 2.5,-0.871 1.375,0 2.5,-0.45 2.5,-1 0,-0.55 1.35,-1 3,-1 1.65,0 3,-0.45 3,-1 0,-0.55 1.125,-1 2.5,-1 1.375,0 2.5,-0.418 2.5,-0.928 0,-0.51 2.461,-1.236 5.468,-1.611 4.115,-0.514 5.616,-1.151 6.067,-2.572 0.408,-1.286 1.536,-1.889 3.532,-1.889 1.613,0 2.933,-0.42 2.933,-0.933 0,-0.513 1.003,-1.251 2.23,-1.64 2.7,-0.857 7.77,-6.098 7.77,-8.033 0,-0.767 0.45,-1.394 1,-1.394 0.653,0 1,-17 1,-49 C 310,7.111 309.813,1 308.5,1 307.675,1 307,1.675 307,2.5 m 0,123.633 c 0,1.997 -3.354,5.867 -5.086,5.867 -0.428,0 -1.065,0.9 -1.414,2 -0.349,1.1 -1.504,2 -2.567,2 -1.063,0 -1.933,0.45 -1.933,1 0,0.55 -0.9,1 -2,1 -1.1,0 -2,0.43 -2,0.955 0,0.525 -1.575,1.25 -3.5,1.611 -1.925,0.361 -3.5,1.057 -3.5,1.545 0,0.489 -1.125,0.889 -2.5,0.889 -1.375,0 -2.5,0.45 -2.5,1 0,0.55 -1.125,1 -2.5,1 -1.375,0 -2.5,0.398 -2.5,0.885 0,0.486 -2.475,1.194 -5.5,1.572 -3.025,0.378 -5.5,1.105 -5.5,1.615 0,0.51 -1.575,0.928 -3.5,0.928 -1.925,0 -3.5,0.45 -3.5,1 0,0.55 -1.575,1 -3.5,1 -1.925,0 -3.5,0.45 -3.5,1 0,0.55 -1.575,1 -3.5,1 -1.925,0 -3.5,0.392 -3.5,0.871 0,0.479 -3.6,1.185 -8,1.569 -4.4,0.383 -8,1.117 -8,1.629 0,0.512 -2.475,0.931 -5.5,0.931 -3.025,0 -5.5,0.45 -5.5,1 0,0.55 -2.475,1 -5.5,1 -3.025,0 -5.5,0.396 -5.5,0.881 0,0.485 -4.275,1.202 -9.5,1.593 -5.225,0.392 -9.5,1.121 -9.5,1.619 0,0.499 -2.925,0.907 -6.5,0.907 -3.667,0 -6.5,0.436 -6.5,1 0,0.583 -3.333,1 -8,1 -4.667,0 -8,0.417 -8,1 0,0.55 -2.213,1 -4.917,1 -2.704,0 -5.066,0.419 -5.25,0.932 -0.183,0.513 -5.846,1.251 -12.583,1.642 -6.738,0.39 -12.25,1.096 -12.25,1.568 0,0.472 -3.6,0.858 -8,0.858 -4.667,0 -8,0.417 -8,1 0,0.564 -2.833,1 -6.5,1 -3.575,0 -6.5,0.407 -6.5,0.904 0,0.497 -4.725,1.226 -10.5,1.619 C 76.725,179.917 72,180.635 72,181.119 72,181.604 70.168,182 67.929,182 60.649,182 61,179.442 61,232.429 61,279.333 61.028,280 63,280 c 1.1,0 2,-0.45 2,-1 0,-0.55 1.575,-1 3.5,-1 1.925,0 3.5,-0.392 3.5,-0.871 0,-0.479 4.5,-1.19 10,-1.58 5.5,-0.39 10,-1.123 10,-1.629 0,-0.506 3.15,-0.92 7,-0.92 4,0 7,-0.429 7,-1 0,-0.571 3,-1 7,-1 3.85,0 7,-0.386 7,-0.858 0,-0.472 5.513,-1.178 12.25,-1.568 6.738,-0.391 12.4,-1.129 12.583,-1.642 0.184,-0.513 3.446,-0.932 7.25,-0.932 3.945,0 6.917,-0.43 6.917,-1 0,-0.564 2.833,-1 6.5,-1 3.667,0 6.5,-0.436 6.5,-1 0,-0.556 2.667,-1 6,-1 3.3,0 6,-0.396 6,-0.881 0,-0.484 4.725,-1.202 10.5,-1.596 5.775,-0.393 10.5,-1.122 10.5,-1.619 0,-0.497 2.475,-0.904 5.5,-0.904 3.025,0 5.5,-0.45 5.5,-1 0,-0.55 2.025,-1 4.5,-1 2.475,0 4.5,-0.385 4.5,-0.856 0,-0.47 3.479,-1.118 7.73,-1.44 4.252,-0.321 7.889,-1.061 8.083,-1.644 0.195,-0.583 2.341,-1.06 4.77,-1.06 2.43,0 4.417,-0.45 4.417,-1 0,-0.55 1.575,-1 3.5,-1 1.925,0 3.5,-0.45 3.5,-1 0,-0.55 1.575,-1 3.5,-1 1.925,0 3.5,-0.418 3.5,-0.928 0,-0.51 2.475,-1.237 5.5,-1.615 3.025,-0.378 5.5,-1.086 5.5,-1.572 0,-0.487 1.125,-0.885 2.5,-0.885 1.375,0 2.5,-0.45 2.5,-1 0,-0.55 1.125,-1 2.5,-1 1.375,0 2.5,-0.391 2.5,-0.868 0,-0.478 1.903,-1.124 4.228,-1.436 2.326,-0.312 4.389,-1.046 4.584,-1.631 0.195,-0.586 1.217,-1.065 2.271,-1.065 1.054,0 1.917,-0.45 1.917,-1 0,-0.55 0.47,-1 1.045,-1 0.575,0 2.129,-1.012 3.452,-2.25 1.324,-1.238 3.103,-2.83 3.955,-3.539 0.851,-0.71 1.548,-2.172 1.548,-3.25 0,-1.079 0.45,-1.961 1,-1.961 0.653,0 1,-16.833 1,-48.5 0,-42.444 -0.187,-48.5 -1.5,-48.5 -0.864,0 -1.5,0.904 -1.5,2.133 M 307,250 c 0,1.1 -0.43,2 -0.955,2 -1.24,0 -6.045,4.805 -6.045,6.045 0,0.525 -0.672,0.955 -1.493,0.955 -2.084,0 -9.507,3.307 -9.507,4.236 0,0.42 -0.9,0.764 -2,0.764 -1.1,0 -2,0.45 -2,1 0,0.55 -0.675,1 -1.5,1 -0.825,0 -1.5,0.414 -1.5,0.92 0,0.507 -2.925,1.234 -6.5,1.617 -3.575,0.383 -6.5,1.094 -6.5,1.579 0,0.486 -1.125,0.884 -2.5,0.884 -1.375,0 -2.5,0.45 -2.5,1 0,0.55 -1.125,1 -2.5,1 -1.375,0 -2.5,0.419 -2.5,0.931 0,0.512 -3.6,1.246 -8,1.629 -4.4,0.384 -8,1.09 -8,1.569 0,0.479 -1.575,0.871 -3.5,0.871 -1.925,0 -3.5,0.45 -3.5,1 0,0.55 -2.025,1 -4.5,1 -2.475,0 -4.5,0.45 -4.5,1 0,0.55 -2.025,1 -4.5,1 -2.475,0 -4.5,0.401 -4.5,0.891 0,0.49 -4.95,1.214 -11,1.609 -6.05,0.395 -11,1.119 -11,1.609 0,0.49 -1.8,0.891 -4,0.891 -2.2,0 -4,0.45 -4,1 0,0.564 -2.833,1 -6.5,1 -3.575,0 -6.5,0.399 -6.5,0.888 0,0.488 -6.3,1.213 -14,1.612 -7.7,0.399 -14,1.124 -14,1.612 0,0.489 -2.475,0.888 -5.5,0.888 -3.025,0 -5.5,0.45 -5.5,1 0,0.571 -3,1 -7,1 -4,0 -7,0.429 -7,1 0,0.571 -3,1 -7,1 -3.85,0 -7,0.396 -7,0.88 0,0.484 -5.625,1.204 -12.5,1.6 -6.875,0.397 -12.5,1.126 -12.5,1.621 0,0.494 -2.025,0.899 -4.5,0.899 -2.475,0 -4.5,0.45 -4.5,1 0,0.55 -2.025,1 -4.5,1 -2.475,0 -4.5,0.45 -4.5,1 0,0.55 -0.9,1 -2,1 -1.971,0 -2,0.667 -2,46.609 v 46.61 l 11.25,-0.729 c 6.188,-0.4 11.493,-1.111 11.79,-1.579 0.297,-0.467 5.601,-1.157 11.785,-1.533 6.185,-0.376 11.481,-1.064 11.769,-1.53 0.288,-0.467 3.647,-0.848 7.465,-0.848 3.961,0 6.941,-0.429 6.941,-1 0,-0.556 2.667,-1 6,-1 3.333,0 6,-0.444 6,-1 0,-0.564 2.833,-1 6.5,-1 3.575,0 6.5,-0.392 6.5,-0.872 0,-0.479 5.85,-1.195 13,-1.59 7.15,-0.396 13,-1.128 13,-1.629 0,-0.5 2.925,-0.909 6.5,-0.909 3.667,0 6.5,-0.436 6.5,-1 0,-0.55 2.25,-1 5,-1 2.75,0 5,-0.401 5,-0.891 0,-0.49 4.95,-1.214 11,-1.609 6.05,-0.395 11,-1.119 11,-1.609 0,-0.49 2.025,-0.891 4.5,-0.891 2.475,0 4.5,-0.45 4.5,-1 0,-0.55 2.025,-1 4.5,-1 2.475,0 4.5,-0.45 4.5,-1 0,-0.55 1.575,-1 3.5,-1 1.925,0 3.5,-0.392 3.5,-0.871 0,-0.479 3.6,-1.185 8,-1.569 4.4,-0.383 8,-1.117 8,-1.629 0,-0.512 1.575,-0.931 3.5,-0.931 1.925,0 3.5,-0.45 3.5,-1 0,-0.55 0.675,-1 1.5,-1 0.825,0 1.5,-0.398 1.5,-0.884 0,-0.485 2.925,-1.196 6.5,-1.579 3.575,-0.383 6.5,-1.11 6.5,-1.617 0,-0.506 1.125,-0.92 2.5,-0.92 1.375,0 2.5,-0.45 2.5,-1 0,-0.55 0.9,-1 2,-1 1.1,0 2,-0.45 2,-1 0,-0.55 0.675,-1 1.5,-1 0.825,0 1.5,-0.394 1.5,-0.875 0,-0.481 1.348,-1.145 2.995,-1.474 1.707,-0.341 5.147,-2.729 8,-5.551 L 310,345.147 V 296.574 C 310,254.064 309.813,248 308.5,248 c -0.833,0 -1.5,0.889 -1.5,2"
       id="path0" />
  </g>
</svg>

<svg id="svg" version="1.1" width="400" height="400" xmlns="http://www.w3.org/2000/svg" xmlns:xlink="http://www.w3.org/1999/xlink" style="display: block;"><g id="svgg"><path id="path0" d="M307.000 2.500 C 307.000 3.325,306.550 4.000,306.000 4.000 C 305.450 4.000,305.000 4.695,305.000 5.545 C 305.000 7.507,300.999 11.548,298.165 12.448 C 296.974 12.826,296.000 13.554,296.000 14.067 C 296.000 14.580,295.100 15.000,294.000 15.000 C 292.900 15.000,292.000 15.450,292.000 16.000 C 292.000 16.550,291.325 17.000,290.500 17.000 C 289.675 17.000,289.000 17.422,289.000 17.939 C 289.000 18.455,286.975 19.181,284.500 19.552 C 282.025 19.923,280.000 20.626,280.000 21.114 C 280.000 21.601,278.875 22.000,277.500 22.000 C 276.125 22.000,275.000 22.450,275.000 23.000 C 275.000 23.550,273.650 24.000,272.000 24.000 C 270.350 24.000,269.000 24.450,269.000 25.000 C 269.000 25.550,267.462 26.000,265.583 26.000 C 263.704 26.000,262.014 26.457,261.828 27.015 C 261.642 27.573,258.455 28.313,254.745 28.659 C 251.035 29.006,248.000 29.674,248.000 30.145 C 248.000 30.615,246.425 31.000,244.500 31.000 C 242.575 31.000,241.000 31.450,241.000 32.000 C 241.000 32.550,239.425 33.000,237.500 33.000 C 235.575 33.000,234.000 33.414,234.000 33.920 C 234.000 34.426,229.500 35.159,224.000 35.549 C 218.500 35.939,214.000 36.650,214.000 37.129 C 214.000 37.608,211.750 38.000,209.000 38.000 C 206.250 38.000,204.000 38.450,204.000 39.000 C 204.000 39.550,201.975 40.000,199.500 40.000 C 197.025 40.000,195.000 40.450,195.000 41.000 C 195.000 41.550,192.525 42.000,189.500 42.000 C 186.475 42.000,184.000 42.405,184.000 42.899 C 184.000 43.394,178.375 44.123,171.500 44.520 C 164.625 44.916,159.000 45.636,159.000 46.120 C 159.000 46.604,155.850 47.000,152.000 47.000 C 148.000 47.000,145.000 47.429,145.000 48.000 C 145.000 48.550,142.525 49.000,139.500 49.000 C 136.475 49.000,134.000 49.399,134.000 49.888 C 134.000 50.376,127.700 51.101,120.000 51.500 C 112.300 51.899,106.000 52.624,106.000 53.112 C 106.000 53.601,102.850 54.000,99.000 54.000 C 95.000 54.000,92.000 54.429,92.000 55.000 C 92.000 55.550,89.525 56.000,86.500 56.000 C 83.475 56.000,81.000 56.450,81.000 57.000 C 81.000 57.550,78.525 58.000,75.500 58.000 C 72.475 58.000,70.000 58.450,70.000 59.000 C 70.000 59.550,68.687 60.000,67.082 60.000 C 60.560 60.000,61.000 56.485,61.000 108.607 L 61.000 156.000 65.500 156.000 C 67.975 156.000,70.000 155.550,70.000 155.000 C 70.000 154.450,72.475 154.000,75.500 154.000 C 78.525 154.000,81.000 153.550,81.000 153.000 C 81.000 152.450,83.025 152.000,85.500 152.000 C 87.975 152.000,90.000 151.550,90.000 151.000 C 90.000 150.429,93.000 150.000,97.000 150.000 C 100.850 150.000,104.000 149.601,104.000 149.112 C 104.000 148.624,110.300 147.899,118.000 147.500 C 125.700 147.101,132.000 146.376,132.000 145.888 C 132.000 145.399,135.375 145.000,139.500 145.000 C 143.833 145.000,147.000 144.578,147.000 144.000 C 147.000 143.450,149.250 143.000,152.000 143.000 C 154.750 143.000,157.000 142.596,157.000 142.102 C 157.000 141.609,163.075 140.880,170.500 140.482 C 177.925 140.084,184.000 139.363,184.000 138.879 C 184.000 138.396,186.475 138.000,189.500 138.000 C 192.525 138.000,195.000 137.550,195.000 137.000 C 195.000 136.450,197.025 136.000,199.500 136.000 C 201.975 136.000,204.000 135.550,204.000 135.000 C 204.000 134.450,206.250 134.000,209.000 134.000 C 211.750 134.000,214.000 133.608,214.000 133.129 C 214.000 132.650,218.500 131.939,224.000 131.549 C 229.500 131.159,234.000 130.426,234.000 129.920 C 234.000 129.414,235.575 129.000,237.500 129.000 C 239.425 129.000,241.000 128.550,241.000 128.000 C 241.000 127.450,242.575 127.000,244.500 127.000 C 246.425 127.000,248.000 126.581,248.000 126.069 C 248.000 125.557,251.600 124.823,256.000 124.440 C 260.400 124.056,264.000 123.350,264.000 122.871 C 264.000 122.392,265.125 122.000,266.500 122.000 C 267.875 122.000,269.000 121.550,269.000 121.000 C 269.000 120.450,270.350 120.000,272.000 120.000 C 273.650 120.000,275.000 119.550,275.000 119.000 C 275.000 118.450,276.125 118.000,277.500 118.000 C 278.875 118.000,280.000 117.582,280.000 117.072 C 280.000 116.562,282.461 115.836,285.468 115.461 C 289.583 114.947,291.084 114.310,291.535 112.889 C 291.943 111.603,293.071 111.000,295.067 111.000 C 296.680 111.000,298.000 110.580,298.000 110.067 C 298.000 109.554,299.003 108.816,300.230 108.427 C 302.930 107.570,308.000 102.329,308.000 100.394 C 308.000 99.627,308.450 99.000,309.000 99.000 C 309.653 99.000,310.000 82.000,310.000 50.000 C 310.000 7.111,309.813 1.000,308.500 1.000 C 307.675 1.000,307.000 1.675,307.000 2.500 M307.000 126.133 C 307.000 128.130,303.646 132.000,301.914 132.000 C 301.486 132.000,300.849 132.900,300.500 134.000 C 300.151 135.100,298.996 136.000,297.933 136.000 C 296.870 136.000,296.000 136.450,296.000 137.000 C 296.000 137.550,295.100 138.000,294.000 138.000 C 292.900 138.000,292.000 138.430,292.000 138.955 C 292.000 139.480,290.425 140.205,288.500 140.566 C 286.575 140.927,285.000 141.623,285.000 142.111 C 285.000 142.600,283.875 143.000,282.500 143.000 C 281.125 143.000,280.000 143.450,280.000 144.000 C 280.000 144.550,278.875 145.000,277.500 145.000 C 276.125 145.000,275.000 145.398,275.000 145.885 C 275.000 146.371,272.525 147.079,269.500 147.457 C 266.475 147.835,264.000 148.562,264.000 149.072 C 264.000 149.582,262.425 150.000,260.500 150.000 C 258.575 150.000,257.000 150.450,257.000 151.000 C 257.000 151.550,255.425 152.000,253.500 152.000 C 251.575 152.000,250.000 152.450,250.000 153.000 C 250.000 153.550,248.425 154.000,246.500 154.000 C 244.575 154.000,243.000 154.392,243.000 154.871 C 243.000 155.350,239.400 156.056,235.000 156.440 C 230.600 156.823,227.000 157.557,227.000 158.069 C 227.000 158.581,224.525 159.000,221.500 159.000 C 218.475 159.000,216.000 159.450,216.000 160.000 C 216.000 160.550,213.525 161.000,210.500 161.000 C 207.475 161.000,205.000 161.396,205.000 161.881 C 205.000 162.366,200.725 163.083,195.500 163.474 C 190.275 163.866,186.000 164.595,186.000 165.093 C 186.000 165.592,183.075 166.000,179.500 166.000 C 175.833 166.000,173.000 166.436,173.000 167.000 C 173.000 167.583,169.667 168.000,165.000 168.000 C 160.333 168.000,157.000 168.417,157.000 169.000 C 157.000 169.550,154.787 170.000,152.083 170.000 C 149.379 170.000,147.017 170.419,146.833 170.932 C 146.650 171.445,140.987 172.183,134.250 172.574 C 127.512 172.964,122.000 173.670,122.000 174.142 C 122.000 174.614,118.400 175.000,114.000 175.000 C 109.333 175.000,106.000 175.417,106.000 176.000 C 106.000 176.564,103.167 177.000,99.500 177.000 C 95.925 177.000,93.000 177.407,93.000 177.904 C 93.000 178.401,88.275 179.130,82.500 179.523 C 76.725 179.917,72.000 180.635,72.000 181.119 C 72.000 181.604,70.168 182.000,67.929 182.000 C 60.649 182.000,61.000 179.442,61.000 232.429 C 61.000 279.333,61.028 280.000,63.000 280.000 C 64.100 280.000,65.000 279.550,65.000 279.000 C 65.000 278.450,66.575 278.000,68.500 278.000 C 70.425 278.000,72.000 277.608,72.000 277.129 C 72.000 276.650,76.500 275.939,82.000 275.549 C 87.500 275.159,92.000 274.426,92.000 273.920 C 92.000 273.414,95.150 273.000,99.000 273.000 C 103.000 273.000,106.000 272.571,106.000 272.000 C 106.000 271.429,109.000 271.000,113.000 271.000 C 116.850 271.000,120.000 270.614,120.000 270.142 C 120.000 269.670,125.513 268.964,132.250 268.574 C 138.988 268.183,144.650 267.445,144.833 266.932 C 145.017 266.419,148.279 266.000,152.083 266.000 C 156.028 266.000,159.000 265.570,159.000 265.000 C 159.000 264.436,161.833 264.000,165.500 264.000 C 169.167 264.000,172.000 263.564,172.000 263.000 C 172.000 262.444,174.667 262.000,178.000 262.000 C 181.300 262.000,184.000 261.604,184.000 261.119 C 184.000 260.635,188.725 259.917,194.500 259.523 C 200.275 259.130,205.000 258.401,205.000 257.904 C 205.000 257.407,207.475 257.000,210.500 257.000 C 213.525 257.000,216.000 256.550,216.000 256.000 C 216.000 255.450,218.025 255.000,220.500 255.000 C 222.975 255.000,225.000 254.615,225.000 254.144 C 225.000 253.674,228.479 253.026,232.730 252.704 C 236.982 252.383,240.619 251.643,240.813 251.060 C 241.008 250.477,243.154 250.000,245.583 250.000 C 248.013 250.000,250.000 249.550,250.000 249.000 C 250.000 248.450,251.575 248.000,253.500 248.000 C 255.425 248.000,257.000 247.550,257.000 247.000 C 257.000 246.450,258.575 246.000,260.500 246.000 C 262.425 246.000,264.000 245.582,264.000 245.072 C 264.000 244.562,266.475 243.835,269.500 243.457 C 272.525 243.079,275.000 242.371,275.000 241.885 C 275.000 241.398,276.125 241.000,277.500 241.000 C 278.875 241.000,280.000 240.550,280.000 240.000 C 280.000 239.450,281.125 239.000,282.500 239.000 C 283.875 239.000,285.000 238.609,285.000 238.132 C 285.000 237.654,286.903 237.008,289.228 236.696 C 291.554 236.384,293.617 235.650,293.812 235.065 C 294.007 234.479,295.029 234.000,296.083 234.000 C 297.137 234.000,298.000 233.550,298.000 233.000 C 298.000 232.450,298.470 232.000,299.045 232.000 C 299.620 232.000,301.174 230.988,302.497 229.750 C 303.821 228.512,305.600 226.920,306.452 226.211 C 307.303 225.501,308.000 224.039,308.000 222.961 C 308.000 221.882,308.450 221.000,309.000 221.000 C 309.653 221.000,310.000 204.167,310.000 172.500 C 310.000 130.056,309.813 124.000,308.500 124.000 C 307.636 124.000,307.000 124.904,307.000 126.133 M86.000 161.000 C 86.000 162.333,86.667 163.000,88.000 163.000 C 89.333 163.000,90.000 162.333,90.000 161.000 C 90.000 159.667,89.333 159.000,88.000 159.000 C 86.667 159.000,86.000 159.667,86.000 161.000 M307.000 250.000 C 307.000 251.100,306.570 252.000,306.045 252.000 C 304.805 252.000,300.000 256.805,300.000 258.045 C 300.000 258.570,299.328 259.000,298.507 259.000 C 296.423 259.000,289.000 262.307,289.000 263.236 C 289.000 263.656,288.100 264.000,287.000 264.000 C 285.900 264.000,285.000 264.450,285.000 265.000 C 285.000 265.550,284.325 266.000,283.500 266.000 C 282.675 266.000,282.000 266.414,282.000 266.920 C 282.000 267.427,279.075 268.154,275.500 268.537 C 271.925 268.920,269.000 269.631,269.000 270.116 C 269.000 270.602,267.875 271.000,266.500 271.000 C 265.125 271.000,264.000 271.450,264.000 272.000 C 264.000 272.550,262.875 273.000,261.500 273.000 C 260.125 273.000,259.000 273.419,259.000 273.931 C 259.000 274.443,255.400 275.177,251.000 275.560 C 246.600 275.944,243.000 276.650,243.000 277.129 C 243.000 277.608,241.425 278.000,239.500 278.000 C 237.575 278.000,236.000 278.450,236.000 279.000 C 236.000 279.550,233.975 280.000,231.500 280.000 C 229.025 280.000,227.000 280.450,227.000 281.000 C 227.000 281.550,224.975 282.000,222.500 282.000 C 220.025 282.000,218.000 282.401,218.000 282.891 C 218.000 283.381,213.050 284.105,207.000 284.500 C 200.950 284.895,196.000 285.619,196.000 286.109 C 196.000 286.599,194.200 287.000,192.000 287.000 C 189.800 287.000,188.000 287.450,188.000 288.000 C 188.000 288.564,185.167 289.000,181.500 289.000 C 177.925 289.000,175.000 289.399,175.000 289.888 C 175.000 290.376,168.700 291.101,161.000 291.500 C 153.300 291.899,147.000 292.624,147.000 293.112 C 147.000 293.601,144.525 294.000,141.500 294.000 C 138.475 294.000,136.000 294.450,136.000 295.000 C 136.000 295.571,133.000 296.000,129.000 296.000 C 125.000 296.000,122.000 296.429,122.000 297.000 C 122.000 297.571,119.000 298.000,115.000 298.000 C 111.150 298.000,108.000 298.396,108.000 298.880 C 108.000 299.364,102.375 300.084,95.500 300.480 C 88.625 300.877,83.000 301.606,83.000 302.101 C 83.000 302.595,80.975 303.000,78.500 303.000 C 76.025 303.000,74.000 303.450,74.000 304.000 C 74.000 304.550,71.975 305.000,69.500 305.000 C 67.025 305.000,65.000 305.450,65.000 306.000 C 65.000 306.550,64.100 307.000,63.000 307.000 C 61.029 307.000,61.000 307.667,61.000 353.609 L 61.000 400.219 72.250 399.490 C 78.438 399.090,83.743 398.379,84.040 397.911 C 84.337 397.444,89.641 396.754,95.825 396.378 C 102.010 396.002,107.306 395.314,107.594 394.848 C 107.882 394.381,111.241 394.000,115.059 394.000 C 119.020 394.000,122.000 393.571,122.000 393.000 C 122.000 392.444,124.667 392.000,128.000 392.000 C 131.333 392.000,134.000 391.556,134.000 391.000 C 134.000 390.436,136.833 390.000,140.500 390.000 C 144.075 390.000,147.000 389.608,147.000 389.128 C 147.000 388.649,152.850 387.933,160.000 387.538 C 167.150 387.142,173.000 386.410,173.000 385.909 C 173.000 385.409,175.925 385.000,179.500 385.000 C 183.167 385.000,186.000 384.564,186.000 384.000 C 186.000 383.450,188.250 383.000,191.000 383.000 C 193.750 383.000,196.000 382.599,196.000 382.109 C 196.000 381.619,200.950 380.895,207.000 380.500 C 213.050 380.105,218.000 379.381,218.000 378.891 C 218.000 378.401,220.025 378.000,222.500 378.000 C 224.975 378.000,227.000 377.550,227.000 377.000 C 227.000 376.450,229.025 376.000,231.500 376.000 C 233.975 376.000,236.000 375.550,236.000 375.000 C 236.000 374.450,237.575 374.000,239.500 374.000 C 241.425 374.000,243.000 373.608,243.000 373.129 C 243.000 372.650,246.600 371.944,251.000 371.560 C 255.400 371.177,259.000 370.443,259.000 369.931 C 259.000 369.419,260.575 369.000,262.500 369.000 C 264.425 369.000,266.000 368.550,266.000 368.000 C 266.000 367.450,266.675 367.000,267.500 367.000 C 268.325 367.000,269.000 366.602,269.000 366.116 C 269.000 365.631,271.925 364.920,275.500 364.537 C 279.075 364.154,282.000 363.427,282.000 362.920 C 282.000 362.414,283.125 362.000,284.500 362.000 C 285.875 362.000,287.000 361.550,287.000 361.000 C 287.000 360.450,287.900 360.000,289.000 360.000 C 290.100 360.000,291.000 359.550,291.000 359.000 C 291.000 358.450,291.675 358.000,292.500 358.000 C 293.325 358.000,294.000 357.606,294.000 357.125 C 294.000 356.644,295.348 355.980,296.995 355.651 C 298.702 355.310,302.142 352.922,304.995 350.100 L 310.000 345.147 310.000 296.574 C 310.000 254.064,309.813 248.000,308.500 248.000 C 307.667 248.000,307.000 248.889,307.000 250.000 M70.000 282.000 C 70.000 283.333,70.667 284.000,72.000 284.000 C 73.333 284.000,74.000 283.333,74.000 282.000 C 74.000 280.667,73.333 280.000,72.000 280.000 C 70.667 280.000,70.000 280.667,70.000 282.000 M76.000 283.500 C 76.000 284.325,76.675 285.000,77.500 285.000 C 78.325 285.000,79.000 284.325,79.000 283.500 C 79.000 282.675,78.325 282.000,77.500 282.000 C 76.675 282.000,76.000 282.675,76.000 283.500 M108.000 287.000 C 108.000 288.111,108.667 289.000,109.500 289.000 C 110.333 289.000,111.000 288.111,111.000 287.000 C 111.000 285.889,110.333 285.000,109.500 285.000 C 108.667 285.000,108.000 285.889,108.000 287.000 " stroke="none" fill="#000000" fill-rule="evenodd"></path></g></svg>
